X: 46
T:Marquis(of Harlington),The. TLY.045
T:Dearest Dickie,aka. TLY.045
M:6/8
L:1/8
Q:110
C:Dearest Dickie,aka
S:Wm.Tildesley,Swinton,Lancs.1860s.
R:Jig
O:England.
A:Lancashire.
H:1860.
Z:vmp.Taz Tarry.
K:GMin
F|BAB cBc|dcd Bcd|efe dcB|ABc F2F|!
 BAB cBc| d2d =e2 b|agf =efg|f3-f2:|!
|:d/2e/2|fdB Bcd| efg cde| dfe dcB| AcA FGA|!
 BFB  dBd|fga bfd|cde FGA| G3-G:|]
